frontend/src/assets/icons/wand.svg

<?xml version="1.0" encoding="UTF-8" standalone="no"?>
<svg
  width="100%"
  height="100%"
  viewBox="0 0 52.91667 52.916669"
  version="1.1"
  id="svg8"
  xml:space="preserve"
  xmlns="http://www.w3.org/2000/svg"
><defs
     id="defs6" />
  <g
    transform="matrix(-0.12664274,-0.02415835,0.02415835,-0.12664274,-8.2706343,100.1021)"
    id="g506"
    style="clip-rule:evenodd;fill-rule:evenodd;stroke-linejoin:round;stroke-miterlimit:2"/>
  <g
    transform="matrix(0,0.32204138,0.32204138,0,-1037.1454,-132.41729)"
    id="g516-3"
    style="clip-rule:evenodd;fill-rule:evenodd;stroke-linejoin:round;stroke-miterlimit:2"><g
       transform="translate(-1026.61,3231.23)"
       id="g514-6"><g
         transform="translate(0,-257.882)"
         id="g512-7"><g
           transform="rotate(100.79998,489.64728,1541.3032)"
           id="g506-5" /><g
    transform="translate(873.583,-38.5703)"
    id="g510-5"/></g></g></g>
  <g
    transform="matrix(-0.07586559,-0.07655366,0.07655366,-0.07586559,114.89194,182.44882)"
    id="g6"
    style="clip-rule:evenodd;fill-rule:evenodd;stroke-linejoin:round;stroke-miterlimit:2"><g
       transform="translate(-3854.11,-22832)"
       id="g4" /></g>
  <path
    d="M 0,0.35029395 H 37.357958 V 37.708247 H 0 Z"
    fill="none"
    id="path1913"
    style="stroke-width:1.55658"/>
  <path
    id="path1915"
    style="stroke-width:2.51954"
    d="M 16.38298,-0.30954185 15.892571,0.7885824 c -1.02398,2.2927453 -2.61944,4.1460368 -4.679818,5.4348107 L 9.0785161,7.5576786 11.370366,8.9090174 c 1.641514,0.967855 2.729867,2.0103286 3.836975,3.6747116 l 1.545642,2.323372 0.976168,-1.725476 c 1.28637,-2.273656 2.351899,-3.3842943 4.405933,-4.5924847 0.932051,-0.5482308 1.69447,-1.1257965 1.69447,-1.2836427 0,-0.1578475 -0.588411,-0.567158 -1.307413,-0.910022 C 20.46559,5.4147713 18.693638,3.7362578 17.490923,1.6303915 Z M 45.349172,0.10283611 44.850495,1.2185303 c -1.040631,2.3300263 -2.662418,4.2134475 -4.756299,5.5231774 l -2.168344,1.3565064 2.329057,1.3730429 c 1.668208,0.983593 2.774394,2.042695 3.899504,3.734139 l 1.570447,2.361613 0.992188,-1.753898 c 1.307284,-2.310626 2.389813,-3.439063 4.477246,-4.6668988 0.947207,-0.5571458 1.722375,-1.1444169 1.722375,-1.3048299 0,-0.1604144 -0.597905,-0.5765693 -1.328601,-0.9250082 -2.089991,-0.996651 -3.890595,-2.7019735 -5.112866,-4.842082 z M 42.16332,27.700119 41.878583,28.33729 c -0.594,1.329995 -1.519878,2.404659 -2.71508,3.152262 l -1.237651,0.77463 1.329118,0.783415 c 0.952224,0.561442 1.584,1.166165 2.226221,2.131653 l 0.896586,1.348238 0.566374,-1.000972 c 0.746207,-1.318922 1.363878,-1.963062 2.5554,-2.663921 0.540672,-0.318022 0.983402,-0.653604 0.983402,-0.745174 0,-0.09157 -0.341525,-0.328725 -0.75861,-0.527616 -1.192982,-0.568897 -2.221003,-1.542584 -2.918685,-2.764173 z m -3.617867,11.850441 -0.325562,0.728637 c -0.679469,1.521368 -1.738575,2.751324 -3.105753,3.606499 l -1.415935,0.885734 1.520838,0.896586 c 1.089239,0.642226 1.811468,1.333682 2.546098,2.438094 l 1.025777,1.542025 0.647506,-1.14515 c 0.853579,-1.5087 1.560367,-2.245655 2.923336,-3.047359 0.618469,-0.363782 1.124479,-0.746887 1.124479,-0.851628 0,-0.10474 -0.390031,-0.376588 -0.867131,-0.604097 -1.364638,-0.650754 -2.540745,-1.764203 -3.338814,-3.161565 z"/>
  <path
    id="rect4498"
    style="fill:#000000;stroke:none;stroke-width:7.10353;stroke-linecap:round;stroke-linejoin:round;stop-color:#000000"
    d="m 0.46642624,45.031283 c -0.72916495,0.759462 -0.58821685,2.091203 0.31650258,2.98639 L 4.9760122,52.16658 c 0.9047176,0.895188 2.2201211,1.004458 2.949286,0.244995 L 39.194048,19.843546 c 0.729165,-0.759463 0.587829,-2.091586 -0.316889,-2.986772 l -4.193082,-4.148909 c -0.904718,-0.895187 -2.219735,-1.004074 -2.9489,-0.244611 z M 26.02979,21.131591 32.583728,14.305325 c 0.06501,-0.06771 0.182387,-0.0583 0.263044,0.02151 l 4.483272,4.436041 c 0.08066,0.07981 0.09293,0.198682 0.02791,0.266395 l -6.553939,6.826269 c -0.06501,0.06771 -0.182385,0.05831 -0.263042,-0.0215 L 26.057701,21.398 c -0.08066,-0.07981 -0.09296,-0.198677 -0.02794,-0.266394 z"/></svg>

<?xml version="1.0" encoding="UTF-8" standalone="no"?>
<svg
   width="100%"
   height="100%"
   viewBox="0 0 52.91667 52.916669"
   version="1.1"
   id="svg8"
   xml:space="preserve"
   xmlns="http://www.w3.org/2000/svg"
   xmlns:svg="http://www.w3.org/2000/svg"><defs
   id="defs6" />
  <g
   transform="matrix(-0.12664274,-0.02415835,0.02415835,-0.12664274,-8.2706343,100.1021)"
   id="g506"
   style="clip-rule:evenodd;fill-rule:evenodd;stroke-linejoin:round;stroke-miterlimit:2" />
  <g
   transform="matrix(0,0.32204138,0.32204138,0,-1037.1454,-132.41729)"
   id="g516-3"
   style="clip-rule:evenodd;fill-rule:evenodd;stroke-linejoin:round;stroke-miterlimit:2"><g
     transform="translate(-1026.61,3231.23)"
     id="g514-6"><g
       transform="translate(0,-257.882)"
       id="g512-7"><g
         transform="rotate(100.79998,489.64728,1541.3032)"
         id="g506-5" /><g
         transform="translate(873.583,-38.5703)"
         id="g510-5" /></g></g></g>
  <g
   transform="matrix(-0.07586559,-0.07655366,0.07655366,-0.07586559,114.89194,182.44882)"
   id="g6"
   style="clip-rule:evenodd;fill-rule:evenodd;stroke-linejoin:round;stroke-miterlimit:2"><g
     transform="translate(-3854.11,-22832)"
     id="g4" /></g>
  <path
   d="M 0,0.35029395 H 37.357958 V 37.708247 H 0 Z"
   fill="none"
   id="path1913"
   style="stroke-width:1.55658" />
  <path
   id="path1915"
   style="stroke-width:2.51954"
   d="M 16.382812 -0.30859375 L 15.892578 0.7890625 C 14.8686 3.0818032 13.273265 4.9338849 11.212891 6.2226562 L 9.078125 7.5585938 L 11.371094 8.9082031 C 13.012604 9.8760563 14.099925 10.919605 15.207031 12.583984 L 16.753906 14.90625 L 17.728516 13.181641 C 19.014882 10.907989 20.080736 9.7980316 22.134766 8.5898438 C 23.066815 8.041614 23.830078 7.4625333 23.830078 7.3046875 C 23.830078 7.1468404 23.240486 6.7373946 22.521484 6.3945312 C 20.464937 5.4138289 18.692947 3.7367215 17.490234 1.6308594 L 16.382812 -0.30859375 z M 45.349609 0.10351562 L 44.849609 1.21875 C 43.80898 3.5487717 42.187627 5.4324602 40.09375 6.7421875 L 37.925781 8.0976562 L 40.255859 9.4707031 C 41.924065 10.454294 43.029189 11.513638 44.154297 13.205078 L 45.724609 15.566406 L 46.716797 13.8125 C 48.024079 11.501878 49.10593 10.374318 51.193359 9.1464844 C 52.140564 8.5893396 52.916016 8.0022095 52.916016 7.8417969 C 52.916016 7.6813827 52.318585 7.2644539 51.587891 6.9160156 C 49.497904 5.9193666 47.696878 4.2143229 46.474609 2.0742188 L 45.349609 0.10351562 z M 33.144531 11.964844 C 32.611543 11.920657 32.098957 12.08316 31.734375 12.462891 L 0.46679688 45.03125 C -0.26236663 45.79071 -0.12151449 47.122393 0.78320312 48.017578 L 4.9765625 52.166016 C 5.8812783 53.061202 7.1966179 53.171572 7.9257812 52.412109 L 39.193359 19.84375 C 39.922524 19.084289 39.781669 17.752606 38.876953 16.857422 L 34.683594 12.707031 C 34.231235 12.259439 33.67752 12.009031 33.144531 11.964844 z M 32.708984 14.261719 C 32.756537 14.265584 32.807328 14.286267 32.847656 14.326172 L 37.330078 18.763672 C 37.410738 18.843482 37.422442 18.961584 37.357422 19.029297 L 30.804688 25.855469 C 30.739678 25.923179 30.621673 25.913794 30.541016 25.833984 L 26.058594 21.398438 C 25.977934 21.318628 25.964277 21.198576 26.029297 21.130859 L 32.583984 14.304688 C 32.616489 14.270833 32.661432 14.257854 32.708984 14.261719 z M 42.164062 27.699219 L 41.878906 28.337891 C 41.284908 29.667882 40.359262 30.742633 39.164062 31.490234 L 37.925781 32.263672 L 39.255859 33.046875 C 40.208081 33.608315 40.838248 34.2142 41.480469 35.179688 L 42.376953 36.527344 L 42.943359 35.527344 C 43.689566 34.208424 44.30848 33.56414 45.5 32.863281 C 46.04067 32.545261 46.482422 32.208756 46.482422 32.117188 C 46.482422 32.025618 46.141694 31.788735 45.724609 31.589844 C 44.531631 31.020947 43.502368 30.047759 42.804688 28.826172 L 42.164062 27.699219 z M 38.544922 39.550781 L 38.220703 40.279297 C 37.541236 41.800661 36.480457 43.029591 35.113281 43.884766 L 33.697266 44.771484 L 35.21875 45.667969 C 36.307987 46.310193 37.030997 47.001059 37.765625 48.105469 L 38.791016 49.648438 L 39.4375 48.503906 C 40.291077 46.99521 40.998361 46.25678 42.361328 45.455078 C 42.979797 45.091296 43.486328 44.708257 43.486328 44.603516 C 43.486328 44.498776 43.096239 44.227509 42.619141 44 C 41.254505 43.349248 40.079317 42.235249 39.28125 40.837891 L 38.544922 39.550781 z " />
  </svg>
